X:112
T: Régen volt, soká lesz
M: 2/4
L: 1/4
K: F
gf | d/e/f | d2 | 
fe | d/c/d | c2 | 
cB | G/A/B | A2 | 
cB | G/A/B | G2 | 

